X:1
T:The Feein' Time
M:6/8
L:1/8
K:D
 A| A2 A d2 d| B2 B A2 A| A2 A d2 d| B3 z2 B| A2 A d2 d| B3 A2 A| G2 F E2 D|\
 F3 F2 E| D2 B, B,2 D| A,A,A, A,2 A,| A,2 A, B,B,C| D3||
